X:390
T:Paddy Fahy's
R:jig
C:Paddy Fahy
H:Also in G, #384
D:Dervish: Live in Palma
Z:id:hn-jig-390
M:6/8
L:1/8
K:D
DFA dfe | dcA ~G3 | AFD =c2d | ed=c B/c/dB |
DFA dfe | dcA GFG | AdB cAG |1 E2D DFE :|2 E2D DFA ||
|: d2e fed | c2A A2B | =cBc edc | B2G GAG |
d2e fed | c2A EFG | AdB cAG |1 E2D DFA :|2 E2D DFE ||

